!!!COM: Grieg, Edvard
!!!CDT: 1843/06/15/-1907/09/04/
!!!OPR: Lyric Pieces
!!!OPS: Op. 43
!!!ONM: No. 6
!!!OTL@@NO: Til v&aring;ren
!!!OTL@EN: To Spring
!!!OTL@DE: An den Fr&uuml;hling
!!!OTL@FR: Au printemps
!!!ODT: 1886///
!!!OMD: Allegro appassionato
**kern	**kern	**kern	**dynam
*staff3	*staff2	*staff1	*staff1-3
*Ipiano	*Ipiano	*Ipiano	*Ipiano
*LH	*RH	*RH	*
*>[I,A,A,B]	*>[I,A,A,B]	*>[I,A,A,B]	*>[I,A,A,B]
*>norep[I,A,B]	*>norep[I,A,B]	*>norep[I,A,B]	*>norep[I,A,B]
*>I	*>I	*>I	*>I
*clefG2	*clefG2	*clefG2	*
*k[f#c#g#d#a#e#]	*k[f#c#g#d#a#e#]	*k[f#c#g#d#a#e#]	*k[f#c#g#d#a#e#]
*F#:	*F#:	*F#:	*F#:
*M6/4	*M6/4	*M6/4	*M6/4
*MM252	*MM252	*MM252	*MM252
=1-	=1-	=1-	=1-
1.r	4r	1.r	.
.	4ff#'\ 4aa#'\ (4ccc#'\	.	pp
.	4ff#'\ 4aa#'\ 4ccc#'\	.	.
.	4ff#'\ 4aa#'\ 4ccc#'\	.	.
.	4ff#'\ 4aa#'\ 4ccc#'\	.	.
.	4ff#'\ 4aa#'\ 4ccc#'\)	.	.
=2	=2	=2	=2
1.r	4r	1.r	.
.	4ff#'\ 4aa#'\ (4ccc#'\	.	.
.	4ff#'\ 4aa#'\ 4ccc#'\	.	.
.	4ff#'\ 4aa#'\ 4ccc#'\	.	.
.	4ff#'\ 4aa#'\ 4ccc#'\	.	.
.	4ff#'\ 4aa#'\ 4ccc#'\)	.	.
=3!|:	=3!|:	=3!|:	=3!|:
*>A	*>A	*>A	*>A
([2.cc#\	4r	1.r	pp
.	4ff#'\ 4aa#'\ (4ccc#'\	.	.
.	4ff#'\ 4aa#'\ 4ccc#'\	.	.
4.cc#\]	4ff#'\ 4aa#'\ 4ccc#'\	.	<
.	4ff#'\ 4aa#'\ 4ccc#'\	.	.
4.dd#\	.	.	.
.	4ff#'\ 4aa#'\ 4ddd#'\)	.	.
=4	=4	=4	=4
2.dd#\	4r	1.r	>
.	4ff#'\ 4aa#'\ (4ddd#'\	.	.
.	4ff#'\ 4aa#'\ 4ddd#'\)	.	.
4.cc#\	4r	.	.
.	4ff#'\ 4aa#'\ (4ccc#'\	.	.
4.a#/	.	.	.
.	4cc#'\ 4ff#'\ 4aa#'\)	.	.
=5	=5	=5	=5
2.f#/	4r	1.r	.
.	4b'\ 4dd#'\ (4ff#'\	.	.
.	4b'\ 4dd#'\ 4ff#'\)	.	.
2.g#/	4r	.	.
.	4b'\ 4dd#'\ (4gg#'\	.	.
.	4b'\ 4dd#'\ 4gg#'\)	.	.
=6	=6	=6	=6
1.a#)	4r	1.r	.
.	4cc#'\ 4ff#'\ (4aa#'\	.	.
.	4cc#'\ 4ff#'\ 4aa#'\	.	.
.	4cc#'\ 4ff#'\ 4aa#'\	.	.
.	4cc#'\ 4ff#'\ 4aa#'\	.	.
.	4cc#'\ 4ff#'\ 4aa#'\)	.	.
=7	=7	=7	=7
(2.cc#\	4r	1.r	.
.	4ff#'\ 4aa#'\ (4ccc#'\	.	.
.	4ff#'\ 4aa#'\ 4ccc#'\	.	.
4ee#\	4ff#'\ 4aa#'\ 4eee#'\	.	<
4dd#\	4ff#'\ 4aa#'\ 4ddd#'\	.	.
4cc#\	4ff#'\ 4aa#'\ 4ccc#'\)	.	.
=8	=8	=8	=8
4.dd#\	4r	1.r	.
.	4ff#'\ 4aa#'\ (4ddd#'\	.	.
4.cc#\	.	.	.
.	4ff#'\ 4aa#'\ 4ccc#'\)	.	.
4.a#/	4r	.	.
.	4cc#'\ 4ff#'\ (4aa#'\	.	.
4.f#/	.	.	.
.	4a#'\ 4cc#'\ 4ff#'\)	.	.
=9	=9	=9	=9
2.f#/	4r	1.r	.
.	4b'\ 4dd#'\ (4ff#'\	.	.
.	4b'\ 4dd#'\ 4ff#'\	.	.
4a#/	4b'\ 4dd#'\ 4aa#'\	.	.
4g#/	4b'\ 4dd#'\ 4gg#'\	.	.
4f#/	4b'\ 4dd#'\ 4ff#'\)	.	.
=10	=10	=10	=10
[2.a#/	4r	1.r	.
.	4cc#'\ 4ff#'\ (4aa#'\	.	.
.	4cc#'\ 4ff#'\ 4aa#'\	.	.
2a#/])	4cc#'\ 4ff#'\ 4aa#'\	.	.
.	4cc#'\ 4ff#'\ 4aa#'\	.	.
4r	4cc#'\ 4ff#'\ 4aa#'\)	.	.
=11	=11	=11	=11
*^	*	*	*
([2.a#/	2.r	4r	1.r	.
.	.	4cc##'\ 4ff#'\ (4aa#'\	.	.
.	.	4cc##'\ 4ff#'\ 4aa#'\)	.	<
4.a#/]	4F#\ 4c##\	4r	.	.
.	2r	4cc##'\ 4ff#'\ (4aa#'\	.	.
4.a#/	.	.	.	.
.	.	4cc##'\ 4ff#'\ 4aa#'\)	.	>
*v	*v	*	*	*
=12	=12	=12	=12
2.a#/	4r	1.r	.
.	4dd#'\ 4ff#'\ (4aa#'\	.	.
.	4dd#'\ 4ff#'\ 4aa#'\)	.	.
2.d#/)	4r	.	.
.	4f#'/ 4a#'/ (4dd#'/	.	.
.	4f#'/ 4a#'/ 4dd#'/)	.	.
=13	=13	=13	=13
*^	*	*	*
([2.a#/	2.r	4r	1.r	.
.	.	4cc##'\ 4ff#'\ (4aa#'\	.	.
.	.	4cc##'\ 4ff#'\ 4aa#'\)	.	.
4a#/]	4F#\ 4c##\	4r	.	.
4b/	2r	4cc##'\ 4ff#'\ (4bb'\	.	.
4cc#/	.	4cc##'\ 4ff#'\ 4ccc#'\)	.	.
*v	*v	*	*	*
=14	=14	=14	=14
1.a#)	4r	1.r	.
.	4dd#'\ 4ff#'\ (4aa#'\	.	.
.	4dd#'\ 4ff#'\ 4aa#'\	.	<
.	4dd#'\ 4ff#'\ 4aa#'\	.	.
.	4dd#'\ 4ff#'\ 4aa#'\	.	.
.	4dd#'\ 4ff#'\ 4aa#'\)	.	.
=15	=15	=15	=15
([2.a#^/	4r	1.r	f
.	4ddn^\ 4ff#^\ 4aa#^\	.	.
.	4dd\ 4ff#\ 4aa#\	.	.
4.a#/]	4dd\ 4ff#\ 4aa#\	.	>
.	4dd\ 4ff#\ 4aa#\	.	.
4.an/	.	.	.
.	4dd\ 4ff#\ 4aan\	.	.
=16	=16	=16	=16
2.an/	4r	1.r	p
.	4cc#'\ 4ee#'\ (4aan'\	.	.
.	4cc#'\ 4ee#'\ 4aa'\)	.	.
2.g#/)	4r	.	.
.	4cc#'\ 4ee#'\ (4gg#'\	.	.
.	4cc#'\ 4ee#'\ 4gg#'\)	.	.
=17	=17	=17	=17
(2.g#/	4r	1.r	.
.	4b#'\ 4dd##'\ (4gg#'\	.	.
.	4b#'\ 4dd##'\ 4gg#'\)	.	.
4.a#/	4r	.	.
.	4b#'\ 4dd##'\ (4aa#'\	.	<
4.b#\	.	.	.
.	4dd##'\ 4bb#'\)	.	.
=18	=18	=18	=18
2.g#/	4r	1.r	.
.	4cc#'\ 4ee#'\ (4gg#'\	.	.
.	4cc#'\ 4ee#'\ 4gg#'\)	.	.
4ee#\	4eee#'\	.	.
4cc#\	4ee#'\ 4gg#'\ (4ccc#'\	.	.
4ccn\)	4ee#'\ 4gg#'\ 4cccn'\)	.	.
=19	=19	=19	=19
([2.b^\	4r	1.r	.
.	4cc#'^\ 4ee#'^\ (4bb'^\	.	.
.	4cc#'\ 4ee#'\ 4bb'\	.	.
4b\]	4cc#'\ 4ee#'\ 4bb'\	.	.
4a#/	4cc#'\ 4ee#'\ 4aa#'\	.	.
4an/	4cc#'\ 4ee#'\ 4aan'\)	.	.
=20	=20	=20	=20
2.an/	4r	1.r	.
.	4cc#'\ 4ee#'\ (4aan'\	.	.
.	4cc#'\ 4ee#'\ 4aa'\)	.	.
2g#/	4r	.	.
.	4cc#'\ 4ee#'\ (4gg#'\	.	.
4a/	4cc#'\ 4ee#'\ 4aa'\)	.	.
=21	=21	=21	=21
2.a#/	4r	1.r	.
.	4dd#'\ 4ff#'\ (4aa#'\	.	<
.	4dd#'\ 4ff#'\ 4aa#'\)	.	.
4cc#\	4dd#\ 4ff#\ 4ccc#\	.	.
4b#\	4dd#\ 4ff#\ 4bb#\	.	.
4a#/	4dd#\ 4ff#\ 4aa#\	.	.
=22	=22	=22	=22
1.cc#)	4r	1.r	.
.	4ee#\ 4gg#\ 4ccc#\	.	f
.	4ee#\ 4gg#\ 4ccc#\	.	.
.	4ee#\ 4gg#\ 4ccc#\	.	.
.	4ee#\ 4gg#\ 4ccc#\	.	.
.	4ee#\ 4gg#\ 4ccc#\	.	.
=23:|!	=23:|!	=23:|!	=23:|!
*>B	*>B	*>B	*>B
*clefF4	*clefF4	*	*
*	*^	*	*
CC#q/	.	.	.	.
[2.C#/	([2.c#/	4r	1.r	p
.	.	4E#\ 4G#\ 4Bn\	.	.
.	.	4E#\ 4G#\ 4B\	.	.
2C#/]	2c#/]	4E#\ 4G#\ 4B\	.	<
.	.	4E#\ 4G#\ 4B\	.	.
4Dn\	4dn/	4r	.	.
=24	=24	=24	=24	=24
2.Dn\	2.dn/	4r	1.r	>
.	.	4E#\ 4G#\ 4B\	.	.
.	.	4E#\ 4G#\ 4B\	.	.
2.C#/	2.c#/	4r	.	.
.	.	4E#\ 4G#\ 4B\	.	.
.	.	4E#\ 4G#\ 4B\	.	.
=25	=25	=25	=25	=25
2.Dn\	2.dn/	4r	1.r	.
.	.	4G#\ 4B\	.	.
.	.	4G#\ 4B\	.	.
4F#\	4f#/	4r	.	.
4D\	4d/	4G#\ 4B\	.	.
4En\	4en/	4r	.	.
=26	=26	=26	=26	=26
1.C#	1.c#)	4r	1.r	.
.	.	4E#\ 4G#\ 4B\	.	.
.	.	4E#\ 4G#\ 4B\	.	.
.	.	4E#\ 4G#\ 4B\	.	.
.	.	4E#\ 4G#\ 4B\	.	.
.	.	4E#\ 4G#\ 4B\	.	.
*	*v	*v	*	*
*	*clefG2	*	*
=27	=27	=27	=27
*	*^	*	*
EE#q/	.	.	.	.
[2.E#\	([2.e#/	4r	1.r	.
.	.	4G#\ 4B\ 4dn\	.	.
.	.	4G#\ 4B\ 4d\	.	.
2E#\]	2e#/]	4G#\ 4B\ 4d\	.	<
.	.	4G#\ 4B\ 4d\	.	.
4F#\	4f#/	4r	.	.
=28	=28	=28	=28	=28
2.F#\	2.f#/	4r	1.r	>
.	.	4G#\ 4B\ 4dn\	.	.
.	.	4G#\ 4B\ 4d\	.	.
2.E#\	2.e#/	4r	.	.
.	.	4G#\ 4B\ 4d\	.	.
.	.	4G#\ 4B\ 4d\	.	.
=29	=29	=29	=29	=29
2.F#\	2.f#/	4r	1.r	.
.	.	4B\ 4dn\	.	.
.	.	4B\ 4d\	.	.
4An\	4an/	4r	.	.
4F#\	4f#/	4B\ 4d\	.	.
4G#\	4g#/	4r	.	.
=30	=30	=30	=30	=30
1.E#	1.e#)	4r	1.r	.
.	.	4B\ 4dn\	.	.
.	.	4B\ 4d\	.	.
.	.	4B\ 4d\	.	.
.	.	4B\ 4d\	.	.
.	.	4B\ 4d\	.	.
=31	=31	=31	=31	=31
(4An^\	(4an^/	4r	1.r	<
4F#\	4f#/	4B\ 4dn\	.	.
4G#\	4g#/	4r	.	.
2.E#\)	2.e#/)	4r	.	.
.	.	4B\ 4d\	.	.
.	.	4B\ 4d\	.	.
=32	=32	=32	=32	=32
(4An^\	(4an^/	4r	1.r	.
4F#\	4f#/	4B\ 4dn\	.	.
4G#\	4g#/	4r	.	.
2.E#\)	2.e#/)	4r	.	.
.	.	4B\ 4d\	.	.
.	.	4B\ 4d\	.	.
=33	=33	=33	=33	=33
(4c#^\	(4cc#^/	4r	1.r	.
4An\	4an/	4dn\ 4e#\	.	.
4B\	4b/	4r	.	.
2.G#\)	2.g#/)	4r	.	.
.	.	4d\ 4e#\	.	.
.	.	4d\ 4e#\	.	.
=34	=34	=34	=34	=34
(4c#^\	(4cc#^/	4r	1.r	.
4An\	4an/	4dn\ 4e#\	.	.
4B\	4b/	4r	.	.
2.G#\)	2.g#/)	4r	.	.
.	.	4d\ 4e#\	.	.
.	.	4d\ 4e#\	.	.
*	*v	*v	*	*
=35	=35	=35	=35
4en^\	4een^\	1.r	.
4c#\	4e#/ 4g#/ 4cc#/	.	.
4dn\	4ddn\	.	.
4B\	4e#/ 4g#/ 4b/	.	.
4en^\	4een^\	.	.
4c#\	4e#/ 4g#/ 4cc#/	.	.
=36	=36	=36	=36
4dn\	4ddn\	1.r	.
4B\	4e#/ 4g#/ 4b/	.	.
4en^\	4een^\	.	.
4c#\	4e#/ 4g#/ 4cc#/	.	.
4d\	4dd\	.	.
4B\	4e#/ 4g#/ 4b/	.	.
=37	=37	=37	=37
*	*clefF4	*clefG2	*clefG2
4r	4r	[1.e#^ [1.ee#^	f
4C#^\ 4E#^\	4G#^\ 4c#^\	.	.
4C#\ 4E#\	4G#\ 4c#\	.	.
4C#\ 4E#\	4G#\ 4c#\	.	.
4C#\ 4E#\	4G#\ 4c#\	.	.
4C#\ 4E#\	4G#\ 4c#\	.	.
=38	=38	=38	=38
*	*	*^	*
4C#\ 4E#\	4G#\ 4c#\	2.ee#/_	2.e#\_	.
4C#\ 4E#\	4G#\ 4c#\	.	.	.
4C#\ 4E#\	4G#\ 4c#\	.	.	.
4C#\ 4E#\	4G#\ 4c#\	4ee#/]	4e#\]	.
4C#\ 4E#\	4G#\ 4c#\	4r	4r	.
4r	4r	8r	8r	.
.	.	8ee#/	8e#\	f
*	*	*v	*v	*
=39	=39	=39	=39
4r	4r	[1.f#^ [1.ff#^	.
4BB^\ 4F#^\	4B^\ 4dn^\	.	.
4BB\ 4F#\	4B\ 4d\	.	.
4BB\ 4F#\	4B\ 4d\	.	.
4BB\ 4F#\	4B\ 4d\	.	.
4BB\ 4F#\	4B\ 4d\	.	.
=40	=40	=40	=40
*	*	*^	*
4BB\ 4F#\	4B\ 4dn\	2.ff#/_	2.f#\_	.
4BB\ 4F#\	4B\ 4d\	.	.	.
4BB\ 4F#\	4B\ 4d\	.	.	.
4BB\ 4F#\	4B\ 4d\	4ff#/]	4f#\]	.
4BB\ 4F#\	4B\ 4d\	4r	4r	.
4r	4r	8r	8r	.
.	.	8ff#/	8f#\	f
*	*	*v	*v	*
=41	=41	=41	=41
4r	4r	[1.an^ [1.aan^	>
4AAn^/ 4F#^/	4An^\ 4dn^\	.	.
4AA/ 4F#/	4A\ 4d\	.	.
4AA/ 4F#/	4A\ 4d\	.	.
4AA/ 4F#/	4A\ 4d\	.	.
4AA/ 4F#/	4A\ 4d\	.	.
=42	=42	=42	=42
*	*	*^	*
4AAn/ 4F#/	4An\ 4dn\	2.aa/_	2.a\_	.
4AA/ 4F#/	4A\ 4d\	.	.	.
4AA/ 4F#/	4A\ 4d\	.	.	.
4AA/ 4F#/	4A\ 4d\	4aa/]	4a\]	.
4AA/ 4F#/	4A\ 4d\	4r	4r	.
4r	4r	8r	8r	.
.	.	8aan/	8an\	f
*	*	*v	*v	*
=43	=43	=43	=43
4r	4r	1.b^ 1.bb^	.
4GG#^/ 4F#^/	4B^\ 4dn^\ 4f#^\	.	.
4GG#/ 4F#/	4B\ 4d\ 4f#\	.	.
4GG#/ 4F#/	4B\ 4d\ 4f#\	.	.
4GG#/ 4F#/	4B\ 4d\ 4f#\	.	.
4GG#/ 4F#/	4B\ 4d\ 4f#\	.	.
=44	=44	=44	=44
*	*	*^	*
4r	4r	[2.bb#^/	[2.b#^\	ff
4GGn^/ 4E#^/	4Bn^\ 4c#^\ 4e#^\	.	.	.
4GG/ 4E#/	4B\ 4c#\ 4e#\	.	.	.
*	*	*v	*v	*
*	*	*^	*
4GG/ 4E#/	4B\ 4c#\ 4e#\	2bb#/]	2b#\]	.
4GG/ 4E#/	4B\ 4c#\ 4e#\	.	.	.
4r	4r	4ccc#^/	4cc#^\	.
*	*	*v	*v	*
*	*clefG2	*	*
=45	=45	=45	=45
8r	4r	[2.cc#\ ([2.ccc#\	p
(8FF#/L	.	.	.
8C#/	4ff#'\ (4aa#'\	.	.
8F#/	.	.	.
8A#/	4ff#'\ 4aa#'\	.	.
8c#/J	.	.	.
8f#\L	4ff#'\ 4aa#'\	2cc#\] 2ccc#\]	.
8c#\	.	.	.
8f#\	4ff#'\ 4aa#'\)	.	.
8a#\J)	.	.	.
4r	4r	4dd#\ 4ddd#\	.
=46	=46	=46	=46
8r	4r	2.dd#\ 2.ddd#\	>
(8FF#/L	.	.	.
8C#/	4ff#'\ (4aa#'\	.	.
8F#/	.	.	.
8A#/	4ff#'\ 4aa#'\	.	.
8c#/J	.	.	.
8f#\L	4r	2cc#\ 2ccc#\	.
8c#\	.	.	.
8f#\	4ff#'\ 4aa#'\)	.	.
8a#\J)	.	.	.
4r	4r	4a#\ 4aa#\	.
=47	=47	=47	=47
8r	4r	2.f#\ 2.ff#\	.
(8FF#/L	.	.	.
8D#/	4b'\ (4dd#'\	.	.
8F#/	.	.	.
8B/	4b'\ 4dd#'\)	.	.
8d#/J)	.	.	.
2r	4r	2.g#\ 2.gg#\	.
.	4b'\ (4dd#'\	.	.
4r	4b'\ 4dd#'\)	.	.
=48	=48	=48	=48
8r	4r	1.a# 1.aa#)	.
(8FF#/L	.	.	.
8C#/	4cc#'\ (4ff#'\	.	.
8F#/	.	.	.
8A#/	4cc#'\ 4ff#'\	.	.
8c#/J	.	.	.
8f#\L	4cc#'\ 4ff#'\	.	.
8c#\	.	.	.
8f#\	4cc#'\ 4ff#'\	.	.
8a#\J)	.	.	.
4r	4cc#'\ 4ff#'\)	.	.
=49	=49	=49	=49
8r	4r	2.cc#\ (2.ccc#\	.
(8FF#/L	.	.	.
8C#/	4ff#'\ (4aa#'\	.	.
8F#/	.	.	.
8A#/	4ff#'\ 4aa#'\)	.	.
8c#/J)	.	.	.
4e#\ 4f#\ 4a#\	2r	4ee#\ 4eee#\	<
4d#\ 4f#\ 4a#\	.	4dd#\ 4ddd#\	.
4c#\ 4f#\ 4a#\	4r	4cc#\ 4ccc#\	.
=50	=50	=50	=50
8r	4r	2dd#\ 2ddd#\	>
(8FF#/L	.	.	.
8C#/	2ff#'\ (2aa#'\	.	.
8F#/	.	.	.
8A#/	.	4cc#\ 4ccc#\	.
8c#/J)	.	.	.
2r	4r	2a#\ 2aa#\	.
.	2cc#'\ 2ff#'\)	.	.
4r	.	4f#\ 4ff#\	.
=51	=51	=51	=51
8r	4r	2.f#\ 2.ff#\	.
(8FF#/L	.	.	.
8D#/	4b'\ (4dd#'\	.	.
8F#/	.	.	.
8B/	4b'\ 4dd#'\)	.	.
8d#/J)	.	.	.
4A#\ 4B\ 4d#\	2r	4a#\ 4aa#\	.
4G#\ 4B\ 4d#\	.	4g#\ 4gg#\	.
4F#\ 4B\ 4d#\	4r	4f#\ 4ff#\	.
=52	=52	=52	=52
8r	4r	1.a# 1.aa#)	.
(8FF#\L	.	.	.
8C#\	4cc#'\ (4ff#'\	.	.
8F#\	.	.	.
8A#\	4cc#'\ 4ff#'\	.	.
8c#\J	.	.	.
8f#\L	4cc#'\ 4ff#'\	.	.
8c#\	.	.	.
8f#\	4cc#'\ 4ff#'\	.	.
8a#\J)	.	.	.
4r	4cc#'\ 4ff#'\)	.	.
=53	=53	=53	=53
8r	4r	[2.a#\ [2.aa#\	.
(8FF#/L	.	.	.
8C##/	4cc##'\ (4ee#'\	.	.
8E#/	.	.	.
8A#/	4cc##'\ 4ee#'\	.	.
8c##/J)	.	.	.
2r	4cc##'\ 4ee#'\	2a#\] 2aa#\]	.
.	4cc##'\ 4ee#'\)	.	.
4r	4r	4a#\ 4aa#\	.
=54	=54	=54	=54
8r	4r	2.a#^\ (2.aa#^\	.
(8FF#/L	.	.	.
8D#/	4dd#'\ (4ff#'\	.	.
8F#/	.	.	.
8A#/	4dd#'\ 4ff#'\)	.	.
8d#/J)	.	.	.
2r	4r	2.d#/ 2.dd#/)	.
.	(4f#'/ 4a#'/	.	.
4r	4f#'/) 4a#'/	.	.
=55	=55	=55	=55
8r	4r	[2.a#\ ([2.aa#\	.
(8FF#/L	.	.	.
8C##/	4cc##'\ (4ee#'\	.	.
8E#/	.	.	.
8A#/	4cc##'\ 4ee#'\	.	.
8c##/J)	.	.	.
4r	4cc##'\ 4ee#'\)	4a#\] 4aa#\]	.
4B\	4c##/ 4e#/	4b\ 4bb\	.
4c#\	4c##/ 4e#/	4cc#\ 4ccc#\)	.
=56	=56	=56	=56
8r	4r	1.a# 1.aa#	.
(8FF#\L	.	.	.
8D#\	4dd#'\ (4ff#'\	.	.
8F#\	.	.	.
8A#\	4dd#'\ 4ff#'\	.	.
8d#\J	.	.	.
8f#\L	4dd#'\ 4ff#'\	.	.
8F#\	.	.	.
8A#\	4dd#'\ 4ff#'\	.	.
8d#\	.	.	.
8f#\	4dd#'\ 4ff#'\)	.	.
8a#\J)	.	.	.
=57	=57	=57	=57
*^	*	*	*
2.r	8r	4r	[2.dd#^\ ([2.ddd#^\	<
.	[8BB#\L	.	.	.
.	8BB#\]	4ff#'\ (4aa#'\	.	.
.	8F#\	.	.	.
.	8A#\	4ff#'\ 4aa#'\	.	.
.	[8d#^\J	.	.	.
4r	2d#\]	4ff#'\ 4aa#'\	2dd#\] 2ddd#\]	.
4f#/ 4a#/	.	4ff#'\ 4aa#'\)	.	.
4f#/ 4a#/	4dn\	4r	4ddn\ 4dddn\)	.
*v	*v	*	*	*
=58	=58	=58	=58
8r	4r	2.ddn\ (2.dddn\	.
(8C#\L	.	.	.
8A#\	4ff#'\ (4aa#'\	.	.
8c#\	.	.	.
8f#\	4ff#'\ 4aa#'\)	.	.
8a#\J)	.	.	.
2r	4r	2.cc#\ 2.ccc#\)	>
.	4ff#'\ (4aa#'\	.	.
4r	4ff#'\ 4aa#'\)	.	.
=59	=59	=59	=59
8r	4r	2.cc#\ (2.ccc#\	.
(8C#\L	.	.	.
8G##\	4ee#'\ (4gg##'\	.	.
8c#\	.	.	.
8e#\	4ee#'\ 4gg##'\	.	.
8g##\J)	.	.	.
4r	4r	2dd#\ 2ddd#\	<
4d#\ 4e#\ 4g##\	4ee#'\ 4gg##'\)	.	.
4e#\	4r	4ee#\ 4eee#\	.
=60	=60	=60	=60
8r	4r	2.cc#\ 2.ccc#\	<
(8FF#/L	.	.	.
8C#/	4ff#'\ (4aa#'\	.	.
8F#/	.	.	.
8A#/	4ff#'\ 4aa#'\)	.	.
8c#/J)	.	.	.
4a#^\	2r	4aa#^\ 4aaa#^\	.
4f#^\ 4a#^\	.	4ff#^\ 4fff#^\	.
4e#^\ 4f#^\ 4a#^\	4r	4ee#^\ 4eee#^\)	.
=61	=61	=61	=61
8r	4r	[2.een\ ([2.eeen\	f
([8BB#\L	.	.	.
8BB#\]	4ff#\ (4aa#\	.	.
8F#\	.	.	.
8A#\	4ff#'\ 4aa#'\	.	.
[8en^\J)	.	.	.
4e\]	4ff#'\ 4aa#'\)	4ee\] 4eee\]	.
4d#^\ 4f#^\ 4a#^\	4ff#^\ 4aa#^\	4dd#^\ 4ddd#^\	.
4dn^\ 4f#^\ 4a#^\	4ff#^\ 4aa#^\	4ddn^\ 4dddn^\)	.
=62	=62	=62	=62
8r	4r	2.ddn\ (2.dddn\	.
(8C#\L	.	.	.
8A#\	4ff#'\ (4aa#'\	.	.
8c#\	.	.	.
8f#\	4ff#'\ 4aa#'\)	.	.
8a#\J)	.	.	.
4r	4r	2cc#\ 2ccc#\	.
4c#^\ 4f#^\ 4a#^\	4ff#'\ (4aa#'\	.	.
4c##^\ 4f#^\ 4a#^\	4ff#'\ 4aa#'\)	4cc##\ 4ccc##\)	.
=63	=63	=63	=63
8r	4r	2.dd#\ (2.ddd#\	.
(8C#/L	.	.	.
8G#/	4gg#'\ (4bb'\	.	.
8B/	.	.	.
*clefG2	*	*	*
8d#/	4gg#'\ 4bb'\)	.	.
8g#/J)	.	.	.
4f#^/ 4g#^/ 4b^/	4gg#^\ 4bb^\	4ff#^\ 4fff#^\	ff
4e#^/ 4g#^/ 4b^/	4gg#^\ 4bb^\	4ee#^\ 4eee#^\	.
4d#^/ 4g#^/ 4b^/	4gg#^\ 4bb^\	4dd#^\ 4ddd#^\)	.
*clefF4	*	*	*
=64	=64	=64	=64
8r	4r	1.ff# 1.fff#	p
(8BB\L	.	.	.
8F#\	4bb'\ (4dddn'\	.	.
8B\	.	.	.
8dn\	4bb'\ 4ddd'\	.	.
8f#\J	.	.	.
*clefG2	*	*	*
8b\L	4bb'\ 4ddd'\	.	.
8ddn\J)	.	.	.
4r	4bb'\ 4ddd'\	.	.
4r	4bb'\ 4ddd'\)	.	.
*clefF4	*	*	*
=65	=65	=65	=65
8r	4r	1.ggn 1.gggn	>
(8GGn\L	.	.	.
8Dn\	4bb'\ (4dddn'\	.	.
8Gn\	.	.	.
8B\	4bb'\ 4ddd'\	.	.
8dn\J	.	.	.
*clefG2	*	*	*
8gn/L	4bb'\ 4ddd'\	.	.
8b/J)	.	.	.
4r	4bb'\ 4ddd'\	.	.
4r	4bb'\ 4ddd'\)	.	.
*clefF4	*	*	*
=66	=66	=66	=66
8r	4r	1.gg# 1.ggg#	.
(8EEn/L	.	.	.
8BB/	4bb'\ (4eeen'\	.	.
8En/	.	.	.
8G#/	4bb'\ 4eee'\	.	.
8B/J	.	.	.
*clefG2	*	*	*
8en/L	4bb'\ 4eee'\	.	.
8g#/J)	.	.	.
4r	4bb'\ 4eee'\	.	.
4r	4bb'\ 4eee'\)	.	.
*clefF4	*	*	*
=67	=67	=67	=67
8r	4r	1.aan 1.aaan	.
(8DDn/L	.	.	.
8AAn/	4dddn'\ (4fff#'\	.	.
8Dn/	.	.	.
8F#/	4ddd'\ 4fff#'\	.	.
8An/J	.	.	.
8dn\L	4ddd'\ 4fff#'\	.	.
8f#\J)	.	.	.
4r	4ddd'\ 4fff#'\	.	.
4r	4ddd'\ 4fff#'\)	.	.
=68	=68	=68	=68
8r	4r	[1.aa# [1.aaa#	pp
(8FFF#/L	.	.	.
8CC#/	4ccc#'\ (4fff#'\	.	.
8FF#/	.	.	.
8AA#/	4ccc#'\ 4fff#'\	.	.
8C#/J	.	.	.
8F#\L	4ccc#'\ 4fff#'\	.	.
8C#\	.	.	.
8F#\	4ccc#'\ 4fff#'\	.	.
8A#\	.	.	.
8c#\	4ccc#'\ 4fff#'\)	.	.
8d#\J	.	.	.
*clefG2	*	*	*
=69	=69	=69	=69
8f#\L	4ccc#'\ (4fff#'\	2.aa#\] 2.aaa#\]	.
8a#\	.	.	.
8cc#\	4ccc#'\ 4fff#'\)	.	.
8dd#\	.	.	.
8ff#\	4ccc#'\ 4fff#'\	.	.
8aa#\J	.	.	.
8ccc#\L	2r	2r	.
8ddd#'\	.	.	.
8fff#'\	.	.	.
8aaa#'\	.	.	.
8cccc#'\	4r	4r	.
8dddd#'\J)	.	.	.
=70	=70	=70	=70
2ffff#\)	1.r	1.r	.
4r	.	.	.
2r	.	.	.
4r	.	.	.
*clefF4	*	*	*
=71	=71	=71	=71
*	*^	*	*
1.BBB 1.BB	(1An 1.f# 1.an	2.d#\	1.ff#^	>
.	.	2.dn\)	.	.
*	*v	*v	*	*
*	*clefF4	*	*
=72	=72	=72	=72
1.FFF#; 1.FF#;	1.C#; 1.F#; 1.A#; 1.c#;	1.f#^;	ppp
==	==	==	==
*-	*-	*-	*-
!!!ENC: Craig Stuart Sapp
!!!END: 2008/02/27/
